X:1
T: If Love's a Sweet Passion
N:
C:Purcell
S:
A:
O:
R:
M:3/4
K:Am
I:speed 150
%W: A1
% voice 1 (1 lines, 28 notes)
K:Am
M:3/4
L:1/16
e4 |d6 e2 c4 |d4 B4 e4 |c6 B2 c2 A2 |A8 f2 e2 |d4 d4 e4/3 |f4/3 g4/3 e4 |c4 e4 e4 |f2 e2 d4 e8 |e4
%W: A2
% voice 1 (1 lines, 28 notes)
d6 e2 |c4 d4 B4 |e4 c6 B2 |c2 A2 A8 |f2 e2 d4 d4 |e4/3 f4/3 g4/3 |e4 c4 e4 |e4 f2 e2 d4 |e8 e2 d2 |
%W: B1
% voice 1 (1 lines, 29 notes)
^c4 d4 e4 |f4 d4 g4 |A4 B4 c4 |B8 e4 |f4 e4 a4 |a2 g2 a2 g2 f2 e2 |f2 e2 d2 e2 d2 c2 |c8 e2 f2 |
%W: B2
% voice 1 (1 lines, 30 notes)
d4 d4 d4/3 |e4/3 f4/3 f4 |e4 e4/3 ^f4/3 |g4/3 g4 ^f4 |f4/3 ^g4/3 a4/3 |^g6 ^f2 e4 |a4 e2 f2 g4 |e4 c2 d2 e4 |c6 B2 A4 |A8 ||
